site/static/img/page-produits/cup.svg

<?xml version="1.0" encoding="UTF-8"?>
<svg width="143px" height="143px" viewBox="0 0 143 143" version="1.1" xmlns="http://www.w3.org/2000/svg" xmlns:xlink="http://www.w3.org/1999/xlink">
    <!-- Generator: Sketch 61.1 (89650) - https://sketch.com -->
    <title>Group 7</title>
    <desc>Created with Sketch.</desc>
    <g id="Page-1" stroke="none" stroke-width="1" fill="none" fill-rule="evenodd">
        <g id="QUELS-PRODUITS-DEPOSER" transform="translate(-1172.000000, -800.000000)">
            <g id="Group-7" transform="translate(1172.000000, 800.000000)">
                <circle id="Oval-Copy-4" fill="#FFD8DD" cx="71.5" cy="71.5" r="71.5"></circle>
                <g id="Group-12" transform="translate(71.615033, 67.341145) rotate(-69.000000) translate(-71.615033, -67.341145) translate(38.790033, 33.866145)">
                    <path d="M51.3526963,11.3572198 C40.6588963,2.77721983 29.0875963,-0.559880167 25.5073963,3.90301983 C24.2801963,5.43181983 24.1514963,7.67821983 24.9405963,10.3146198 C23.2323963,12.6091198 20.6388963,16.1789198 18.9995963,18.8296198 C16.5113963,22.8557198 3.12139633,42.3921198 10.9837963,53.2952198 C7.37499633,57.0886198 0.477196329,64.1372198 1.39759633,66.0677198 C1.58479633,66.4603198 2.01639633,66.7021198 2.44929633,66.7294198 C3.24359633,66.7788198 4.03789633,66.1743198 4.65929633,65.7479198 C5.05319633,65.4775198 10.1621963,59.5092198 13.3029963,55.8211198 C24.6948963,63.5249198 42.7362963,49.3692198 46.6063963,46.5482198 C46.6063963,46.5482198 53.3936963,40.6059198 57.0843963,36.8073198 C60.3070963,37.2441198 62.8563963,36.6838198 64.2278963,34.9730198 C67.8093963,30.5101198 62.0451963,19.9372198 51.3526963,11.3572198" id="Fill-22" fill="#C5E2E0"></path>
                    <path d="M50.0387863,9.43386983 C39.3449863,0.853869833 27.7749863,-2.48323017 24.1934863,1.97966983 C22.9662863,3.50846983 22.8375863,5.75486983 23.6266863,8.39126983 C21.9184863,10.6857698 19.3249863,14.2555698 17.6856863,16.9062698 C15.1974863,20.9323698 1.80748633,40.4687698 9.66988633,51.3718698 C6.06108633,55.1652698 -0.836713671,62.2138698 0.0836863295,64.1443698 C0.270886329,64.5369698 0.702486329,64.7787698 1.13538633,64.8060698 C1.92968633,64.8554698 2.72398633,64.2509698 3.34538633,63.8245698 C3.73928633,63.5541698 8.84828633,57.5858698 11.9890863,53.8977698 C23.3809863,61.6015698 41.4223863,47.4458698 45.2924863,44.6248698 C45.2924863,44.6248698 52.0797863,38.6825698 55.7704863,34.8839698 C58.9931863,35.3220698 61.5424863,34.7604698 62.9152863,33.0496698 C66.4954863,28.5867698 60.7312863,18.0138698 50.0387863,9.43386983" id="Fill-24" fill="#FFFFFF"></path>
                    <line x1="56.3228563" y1="35.0625898" x2="38.2697563" y2="23.4704898" id="Fill-26" fill="#4B64A3"></line>
                    <path d="M60.0325363,29.7990198 C57.7549363,32.6382198 48.7355363,29.1841198 39.8877363,22.0848198 C31.0386363,14.9842198 25.7138363,6.92811983 27.9927363,4.08891983 C30.2690363,1.25101983 39.2884363,4.70381983 48.1375363,11.8031198 C56.9840363,18.9037198 62.3101363,26.9598198 60.0325363,29.7990198" id="Fill-28" fill="#E7364B"></path>
                    <path d="M30.2416063,55.2309198 C30.2247063,55.2257198 30.2104063,55.2205198 30.1935063,55.2140198 C24.3695063,52.8480198 19.6440063,50.5444198 15.4996063,46.9850198 C12.8385063,44.6983198 10.0890063,41.2676198 8.32360633,38.0306198 C8.14940633,37.7108198 8.26770633,37.3130198 8.58620633,37.1388198 C8.90470633,36.9646198 9.30510633,37.0829198 9.47670633,37.4014198 C11.1719063,40.5084198 13.8070063,43.7987198 16.3550063,45.9879198 C20.3642063,49.4316198 24.9844063,51.6793198 30.6875063,53.9959198 C31.0242063,54.1324198 31.1867063,54.5159198 31.0489063,54.8513198 C30.9189063,55.1724198 30.5653063,55.3349198 30.2416063,55.2309198" id="Fill-30" fill="#E7364B"></path>
                    <path d="M33.1894863,53.7087498 C33.1699863,53.7035498 33.1517863,53.6957498 33.1322863,53.6879498 C26.8571863,51.0346498 21.7845863,48.3969498 17.4256863,44.1394498 C14.6332863,41.4120498 11.8083863,37.2468498 10.0546863,33.2701498 C9.90778633,32.9373498 10.0585863,32.5499498 10.3900863,32.4030498 C10.7241863,32.2574498 11.1115863,32.4082498 11.2571863,32.7397498 C12.9484863,36.5721498 15.6641863,40.5813498 18.3434863,43.1995498 C22.5541863,47.3114498 27.5058863,49.8828498 33.6444863,52.4776498 C33.9785863,52.6180498 34.1358863,53.0041498 33.9941863,53.3382498 C33.8615863,53.6541498 33.5092863,53.8114498 33.1894863,53.7087498" id="Fill-32" fill="#E7364B"></path>
                    <path d="M25.5012863,56.9384698 C25.4830863,56.9332698 25.4674863,56.9267698 25.4492863,56.9189698 C20.8771863,55.0339698 17.1721863,53.1814698 13.9429863,50.2681698 C11.8681863,48.3948698 9.74138633,45.5647698 8.39328633,42.8828698 C8.22948633,42.5578698 8.35948633,42.1639698 8.68448633,42.0001698 C9.00688633,41.8376698 9.40338633,41.9676698 9.56718633,42.2926698 C10.8476863,44.8380698 12.8613863,47.5199698 14.8230863,49.2918698 C17.9118863,52.0790698 21.5063863,53.8717698 25.9510863,55.7047698 C26.2864863,55.8425698 26.4463863,56.2273698 26.3072863,56.5627698 C26.1759863,56.8812698 25.8236863,57.0411698 25.5012863,56.9384698" id="Fill-34" fill="#E7364B"></path>
                    <path d="M10.3659063,57.6087498 C9.73280633,57.4072498 9.07760633,57.1212498 8.49780633,56.5180498 C8.11820633,56.1241498 7.73860633,55.5053498 7.48640633,54.8618498 C7.35510633,54.5238498 7.52150633,54.1429498 7.85820633,54.0103498 C8.19620633,53.8777498 8.57710633,54.0441498 8.71100633,54.3821498 C8.89820633,54.8579498 9.18550633,55.3389498 9.44290633,55.6067498 C9.84330633,56.0201498 10.3243063,56.2281498 10.9132063,56.4023498 C11.2486063,56.5089498 11.4592063,56.8742498 11.3539063,57.2213498 C11.2499063,57.5684498 10.8820063,57.7660498 10.5349063,57.6620498 C10.4790063,57.6451498 10.4231063,57.6269498 10.3659063,57.6087498" id="Fill-36" fill="#E7364B"></path>
                    <path d="M8.49962633,59.9149498 C7.86912633,59.7134498 7.21522633,59.4274498 6.63412633,58.8255498 C6.25582633,58.4316498 5.87882633,57.8128498 5.62662633,57.1706498 C5.49272633,56.8326498 5.65912633,56.4504498 5.99712633,56.3178498 C6.33512633,56.1839498 6.71732633,56.3516498 6.84862633,56.6896498 C7.03712633,57.1654498 7.32442633,57.6464498 7.58182633,57.9129498 C7.98222633,58.3289498 8.45932633,58.5317498 9.05212633,58.7098498 C9.05602633,58.7111498 9.05992633,58.7111498 9.06382633,58.7124498 C9.40312633,58.8216498 9.59552633,59.1843498 9.49282633,59.5275498 C9.38882633,59.8759498 9.02222633,60.0735498 8.67512633,59.9695498 C8.61662633,59.9513498 8.55812633,59.9331498 8.49962633,59.9149498" id="Fill-38" fill="#E7364B"></path>
                    <path d="M6.12062633,62.0559198 C5.48882633,61.8544198 4.83622633,61.5684198 4.25512633,60.9678198 C3.87422633,60.5713198 3.49722633,59.9525198 3.24632633,59.3103198 C3.11372633,58.9723198 3.28012633,58.5914198 3.61812633,58.4588198 C3.95612633,58.3262198 4.33832633,58.4926198 4.46962633,58.8319198 C4.65552633,59.3051198 4.94412633,59.7861198 5.20282633,60.0552198 C5.60192633,60.4686198 6.07902633,60.6701198 6.67312633,60.8508198 C6.67702633,60.8521198 6.67962633,60.8534198 6.67962633,60.8534198 C7.02412633,60.9626198 7.21652633,61.3253198 7.11382633,61.6685198 C7.00982633,62.0169198 6.64192633,62.2145198 6.29482633,62.1105198 C6.23762633,62.0923198 6.17912633,62.0754198 6.12062633,62.0559198" id="Fill-40" fill="#E7364B"></path>
                </g>
            </g>
        </g>
    </g>
</svg>

<svg height="143" viewBox="0 0 143 143" width="143" xmlns="http://www.w3.org/2000/svg"><g fill="none" fill-rule="evenodd"><circle cx="71.5" cy="71.5" fill="#ffd8dd" r="71.5"/><g transform="matrix(.35836795 -.93358043 .93358043 .35836795 28.6 85.989555)"><path d="m51.3526963 11.3572198c-10.6938-8.57999997-22.2651-11.91709997-25.8453-7.45419997-1.2272 1.5288-1.3559 3.7752-.5668 6.41159997-1.7082 2.2945-4.3017 5.8643-5.941 8.515-2.4882 4.0261-15.87819997 23.5625-8.0158 34.4656-3.60879997 3.7934-10.50659997 10.842-9.58619997 12.7725.1872.3926.6188.6344 1.0517.6617.7943.0494 1.5886-.5551 2.21-.9815.3939-.2704 5.50289997-6.2387 8.64369997-9.9268 11.3919 7.7038 29.4333-6.4519 33.3034-9.2729 0 0 6.7873-5.9423 10.478-9.7409 3.2227.4368 5.772-.1235 7.1435-1.8343 3.5815-4.4629-2.1827-15.0358-12.8752-23.6158" fill="#c5e2e0"/><path d="m50.0387863 9.43386983c-10.6938-8.58-22.2638-11.9171-25.8453-7.4542-1.2272 1.5288-1.3559 3.7752-.5668 6.4116-1.7082 2.29449997-4.3017 5.86429997-5.941 8.51499997-2.4882 4.0261-15.87819997 23.5625-8.01579997 34.4656-3.6088 3.7934-10.5066 10.842-9.5862 12.7725.1872.3926.6188.6344 1.0517.6617.7943.0494 1.5886-.5551 2.21-.9815.3939-.2704 5.5029-6.2387 8.64369997-9.9268 11.3919 7.7038 29.4333-6.4519 33.3034-9.2729 0 0 6.7873-5.9423 10.478-9.7409 3.2227.4381 5.772-.1235 7.1448-1.8343 3.5802-4.4629-2.184-15.0358-12.8765-23.61579997" fill="#fff"/><path d="m56.322856 35.06259-18.0531-11.5921" fill="#4b64a3"/><g fill="#e7364b"><path d="m60.0325363 29.7990198c-2.2776 2.8392-11.297-.6149-20.1448-7.7142-8.8491-7.1006-14.1739-15.15669997-11.895-17.99589997 2.2763-2.8379 11.2957.6149 20.1448 7.71419997 8.8465 7.1006 14.1726 15.1567 11.895 17.9959"/><path d="m30.2416063 55.2309198c-.0169-.0052-.0312-.0104-.0481-.0169-5.824-2.366-10.5495-4.6696-14.6939-8.229-2.6611-2.2867-5.4106-5.7174-7.17599997-8.9544-.1742-.3198-.0559-.7176.2626-.8918s.7189-.0559.8905.2626c1.69519997 3.107 4.33029997 6.3973 6.87829997 8.5865 4.0092 3.4437 8.6294 5.6914 14.3325 8.008.3367.1365.4992.52.3614.8554-.13.3211-.4836.4836-.8073.3796"/><path d="m33.1894863 53.7087498c-.0195-.0052-.0377-.013-.0572-.0208-6.2751-2.6533-11.3477-5.291-15.7066-9.5485-2.7924-2.7274-5.6173-6.8926-7.371-10.8693-.14689997-.3328.0039-.7202.3354-.8671.3341-.1456.7215.0052.8671.3367 1.6913 3.8324 4.407 7.8416 7.0863 10.4598 4.2107 4.1119 9.1624 6.6833 15.301 9.2781.3341.1404.4914.5265.3497.8606-.1326.3159-.4849.4732-.8047.3705"/><path d="m25.5012863 56.9384698c-.0182-.0052-.0338-.0117-.052-.0195-4.5721-1.885-8.2771-3.7375-11.5063-6.6508-2.0748-1.8733-4.20159997-4.7034-5.54969997-7.3853-.1638-.325-.0338-.7189.2912-.8827.3224-.1625.7189-.0325.8827.2925 1.28049997 2.5454 3.29419997 5.2273 5.25589997 6.9992 3.0888 2.7872 6.6833 4.5799 11.128 6.4129.3354.1378.4953.5226.3562.858-.1313.3185-.4836.4784-.806.3757"/><path d="m10.3659063 57.6087498c-.63309997-.2015-1.28829997-.4875-1.86809997-1.0907-.3796-.3939-.7592-1.0127-1.0114-1.6562-.1313-.338.0351-.7189.3718-.8515.338-.1326.7189.0338.8528.3718.1872.4758.4745.9568.7319 1.2246.4004.4134.88139997.6214 1.47029997.7956.3354.1066.546.4719.4407.819-.104.3471-.4719.5447-.819.4407-.0559-.0169-.1118-.0351-.169-.0533"/><path d="m8.49962633 59.9149498c-.6305-.2015-1.2844-.4875-1.8655-1.0894-.3783-.3939-.7553-1.0127-1.0075-1.6549-.1339-.338.0325-.7202.3705-.8528.338-.1339.7202.0338.8515.3718.1885.4758.4758.9568.7332 1.2233.4004.416.8775.6188 1.4703.7969.0039.0013.0078.0013.0117.0026.3393.1092.5317.4719.429.8151-.104.3484-.4706.546-.8177.442-.0585-.0182-.117-.0364-.1755-.0546"/><path d="m6.12062633 62.0559198c-.6318-.2015-1.2844-.4875-1.8655-1.0881-.3809-.3965-.7579-1.0153-1.0088-1.6575-.1326-.338.0338-.7189.3718-.8515s.7202.0338.8515.3731c.1859.4732.4745.9542.7332 1.2233.3991.4134.8762.6149 1.4703.7956.0039.0013.0065.0026.0065.0026.3445.1092.5369.4719.4342.8151-.104.3484-.4719.546-.819.442-.0572-.0182-.1157-.0351-.1742-.0546"/></g></g></g></svg>
